images_sukapura_svg/cmd/sc_formatpaintbrush.svg

<svg viewBox="0 0 16 16" xmlns="http://www.w3.org/2000/svg">


     /&amp;amp;gt;
 <g transform="matrix(.76467219 0 0 .72664045 -.294017 .01391)"><path d="m7.0922108 9.8680516 8.2953382 5.8887494-2.143755 3.119468c-.333999.408747-.200397.966114.133618 1.189061l1.436197 1.374861h-8.1162173c-3.3110346 0-4.6547203-2.91191-3.0624901-5.980094z" fill="#ffa914" stroke="#f58b00"/><path d="m10.423078 5.8926495 7.397213 5.2172145c.907371.545594 1.173892 1.818531.117811 2.523559l-.99771 1.73784-10.0417669-7.1196167 1.1470455-1.7975057c.4973822-.8952347 1.238349-1.2182456 2.3773914-.5614919z" fill="#dadada" stroke="#848489" stroke-width="1.341537"/><path d="m12.927812.57553817-3.6840911 4.69357493 2.1184481 1.609263 3.466132-4.9958202z" fill="#dadada" stroke="#848489" stroke-linecap="round" transform="matrix(1.3077499 0 0 1.3761964 .384501 -.019143)"/><path d="m2.1132812 12.173828c-.5158787 1.854202.5392716 3.419922 2.7148438 3.419922h6.205078l-1.0976561-1c-.2089735-.132547-.3034201-.42576-.1953125-.691406-3.0320484-.693518-5.4155691-1.234306-7.6269532-1.728516z" fill="#148eff" stroke="#0070f5" transform="matrix(1.3077499 0 0 1.3761964 .384501 -.019143)"/><g fill="none" stroke="#fff" stroke-width="1.341537"><path d="m8.3376412 8.5136534 1.0504866-1.6242859 8.2725562 5.7318935"/><path d="m13.8948 7.419726 3.714548-4.8985761.909046.6267538"/></g></g></svg>

<?xml version="1.0" encoding="UTF-8" standalone="no"?>
<svg
   xmlns:dc="http://purl.org/dc/elements/1.1/"
   xmlns:cc="http://creativecommons.org/ns#"
   xmlns:rdf="http://www.w3.org/1999/02/22-rdf-syntax-ns#"
   xmlns:svg="http://www.w3.org/2000/svg"
   xmlns="http://www.w3.org/2000/svg"
   xmlns:sodipodi="http://sodipodi.sourceforge.net/DTD/sodipodi-0.dtd"
   xmlns:inkscape="http://www.inkscape.org/namespaces/inkscape"
   viewBox="0 0 16 16"
   version="1.1"
   id="svg10"
   sodipodi:docname="sc_formatpaintbrush.svg"
   inkscape:export-filename="/home/rizmut/Dokumen/Rizmut/Github/libreoffice-style-colibrex/images_colibrex/cmd/sc_formatpaintbrush.png"
   inkscape:export-xdpi="96"
   inkscape:export-ydpi="96"
   inkscape:version="0.92.3 (unknown)"><metadata
   id="metadata16">
  <rdf:RDF>
    <cc:Work
       rdf:about="">
      <dc:format>image/svg+xml</dc:format>
      <dc:type
         rdf:resource="http://purl.org/dc/dcmitype/StillImage" />
    </cc:Work>
  </rdf:RDF>
</metadata>
<defs
   id="defs14" />
<sodipodi:namedview
   pagecolor="#ffffff"
   bordercolor="#666666"
   borderopacity="1"
   objecttolerance="10"
   gridtolerance="10"
   guidetolerance="10"
   inkscape:pageopacity="0"
   inkscape:pageshadow="2"
   inkscape:window-width="1366"
   inkscape:window-height="706"
   id="namedview12"
   showgrid="false"
   inkscape:zoom="20.85965"
   inkscape:cx="4.1684523"
   inkscape:cy="8.0803907"
   inkscape:window-x="0"
   inkscape:window-y="0"
   inkscape:window-maximized="1"
   inkscape:current-layer="svg10" />


     /&amp;gt;
 <g
   transform="matrix(.76467219 0 0 .72664045 -.294017 .01391)"
   id="g8">
  <path
     d="m 7.0922108,9.8680516 8.2953382,5.8887494 -2.143755,3.119468 c -0.333999,0.408747 -0.200397,0.966114 0.133618,1.189061 l 1.436197,1.374861 H 6.6973917 c -3.3110346,0 -4.6547203,-2.91191 -3.0624901,-5.980094 z"
     id="path4"
     style="fill:#ffa914;fill-opacity:1;stroke:#f58b00;stroke-opacity:1"
     inkscape:connector-curvature="0"
     sodipodi:nodetypes="cccccscc" />
  <path
     d="m 10.423078,5.8926495 7.397213,5.2172145 c 0.907371,0.545594 1.173892,1.818531 0.117811,2.523559 l -0.99771,1.73784 L 6.8986251,8.2516463 8.0456706,6.4541406 C 8.5430528,5.5589059 9.2840196,5.235895 10.423062,5.8926487 Z"
     id="path2"
     style="fill:#dadada;fill-opacity:1;stroke:#848489;stroke-width:1.34153676;stroke-miterlimit:4;stroke-dasharray:none;stroke-opacity:1"
     inkscape:connector-curvature="0"
     sodipodi:nodetypes="cccccccc" />
  <path
     style="fill:#dadada;fill-opacity:1;stroke:#848489;stroke-width:1;stroke-linecap:round;stroke-miterlimit:4;stroke-dasharray:none;stroke-opacity:1"
     d="M 12.927812,0.57553817 9.2437209,5.2691131 11.362169,6.8783761 14.828301,1.8825559 Z"
     transform="matrix(1.3077499,0,0,1.3761964,0.38450071,-0.01914289)"
     id="path6"
     inkscape:connector-curvature="0"
     sodipodi:nodetypes="ccccc" />
  <path
     style="fill:#148eff;stroke:#0070f5;stroke-width:1px;stroke-linecap:butt;stroke-linejoin:miter;stroke-opacity:1;fill-opacity:1"
     d="M 2.1132812 12.173828 C 1.5974025 14.02803 2.6525528 15.59375 4.828125 15.59375 L 11.033203 15.59375 L 9.9355469 14.59375 C 9.7265734 14.461203 9.6321268 14.16799 9.7402344 13.902344 C 6.708186 13.208826 4.3246653 12.668038 2.1132812 12.173828 z "
     transform="matrix(1.3077499,0,0,1.3761964,0.38450071,-0.01914289)"
     id="path846" />
  <path
     style="fill:none;stroke:#ffffff;stroke-width:1.34153664px;stroke-linecap:butt;stroke-linejoin:miter;stroke-opacity:1"
     d="M 8.3376412,8.5136534 9.3881278,6.8893675 17.660684,12.621261"
     id="path866"
     inkscape:connector-curvature="0"
     sodipodi:nodetypes="ccc" />
  <path
     style="fill:none;stroke:#ffffff;stroke-width:1.34153664px;stroke-linecap:butt;stroke-linejoin:miter;stroke-opacity:1"
     d="m 13.8948,7.419726 3.714548,-4.8985761 0.909046,0.6267538"
     id="path872"
     inkscape:connector-curvature="0"
     sodipodi:nodetypes="ccc" />
</g>
</svg>
